X:11
T:Branle des Lavandires
C:Thoinot Arbeau
B:L'Orchesographie
M:C|
L:1/8
K:C
AA AA | GG c2 | dc BA | AG A2 :|
Ae ce | dc BA | Ae ce | dc BA |
|: AA G2 | A2 B2 | BB Bc | dc BA |
AA G2 | A2 B2 | dc BA | AG A2 :|
